assets/img/icons_pokemon/steel.svg

<svg width="256" height="256" viewBox="0 0 256 256" fill="none" xmlns="http://www.w3.org/2000/svg">
<g clip-path="url(#clip0_57_776)">
<path d="M128 256C198.692 256 256 198.692 256 128C256 57.3075 198.692 0 128 0C57.3075 0 0 57.3075 0 128C0 198.692 57.3075 256 128 256Z" fill="#74B0CB"/>
<path d="M117.24 93.22C119.84 106.63 122.02 117.88 124.5 130.65C101.77 137.14 79.8198 143.4 54.8198 150.53C64.6598 120.18 73.4798 93.01 82.4098 65.48H171.81C172.76 67.49 173.94 69.97 175.65 73.57C156.01 80.18 137.38 86.45 117.24 93.22Z" fill="white"/>
<path d="M200.8 150.53C185.89 161.3 172.31 171.11 156 182.89C148.25 155.37 141.18 130.26 133.62 103.39C150.12 98.13 164.4 93.57 180.42 88.46C187.38 109.67 193.92 129.58 200.8 150.53Z" fill="white"/>
<path d="M143.47 191.59C138.25 195.57 133.41 199.27 127.7 203.62C107.99 189.25 88.8598 175.3 66.5098 159.01C88.6798 152.6 107.4 147.19 127.63 141.35C133.09 158.67 138.11 174.57 143.48 191.59H143.47Z" fill="white"/>
<path d="M97.0502 88.4499C101.27 88.4499 104.69 85.0294 104.69 80.8099C104.69 76.5905 101.27 73.1699 97.0502 73.1699C92.8307 73.1699 89.4102 76.5905 89.4102 80.8099C89.4102 85.0294 92.8307 88.4499 97.0502 88.4499Z" fill="#77B2CB"/>
<path d="M161.67 127.36C167.419 127.36 172.08 122.699 172.08 116.95C172.08 111.201 167.419 106.54 161.67 106.54C155.92 106.54 151.26 111.201 151.26 116.95C151.26 122.699 155.92 127.36 161.67 127.36Z" fill="#77B2CB"/>
</g>
<defs>
<clipPath id="clip0_57_776">
<rect width="256" height="256" fill="white"/>
</clipPath>
</defs>
</svg>

<?xml version="1.0" encoding="UTF-8"?>
<svg id="Layer_1" data-name="Layer 1" xmlns="http://www.w3.org/2000/svg" viewBox="0 0 256 256">
  <defs>
    <style>
      .cls-1 {
        fill: #fff;
      }

      .cls-2 {
        fill: #77b2cb;
      }

      .cls-3 {
        fill: #74b0cb;
      }
    </style>
  </defs>
  <circle class="cls-3" cx="128" cy="128" r="128"/>
  <path class="cls-1" d="M117.24,93.22c2.6,13.41,4.78,24.66,7.26,37.43-22.73,6.49-44.68,12.75-69.68,19.88,9.84-30.35,18.66-57.52,27.59-85.05h89.4c.95,2.01,2.13,4.49,3.84,8.09-19.64,6.61-38.27,12.88-58.41,19.65Z"/>
  <path class="cls-1" d="M200.8,150.53c-14.91,10.77-28.49,20.58-44.8,32.36-7.75-27.52-14.82-52.63-22.38-79.5,16.5-5.26,30.78-9.82,46.8-14.93,6.96,21.21,13.5,41.12,20.38,62.07Z"/>
  <path class="cls-1" d="M143.47,191.59c-5.22,3.98-10.06,7.68-15.77,12.03-19.71-14.37-38.84-28.32-61.19-44.61,22.17-6.41,40.89-11.82,61.12-17.66,5.46,17.32,10.48,33.22,15.85,50.24Z"/>
  <circle class="cls-2" cx="97.05" cy="80.81" r="7.64"/>
  <circle class="cls-2" cx="161.67" cy="116.95" r="10.41"/>
</svg>
